Gruvbox-Plus-Dark/panel/16/prime-intel.svg

<svg xmlns="http://www.w3.org/2000/svg" width="16" height="16" version="1">
 <defs>
  <style id="current-color-scheme" type="text/css">
   .ColorScheme-Text { color:#ebdbb2; } .ColorScheme-Highlight { color:#458588; }
  </style>
 </defs>
 <path style="fill:currentColor" class="ColorScheme-Text" d="M 1.7773438 1 C 0.79245483 1 0 1.7805 0 2.75 L 0 13.25 C 0 14.2195 0.79245483 15 1.7773438 15 L 14.222656 15 C 15.207545 15 16 14.2195 16 13.25 L 16 2.75 C 16 1.7805 15.207545 1 14.222656 1 L 1.7773438 1 z M 1 5.125 L 1.8886719 5.125 L 1.8886719 6 L 1 6 L 1 5.125 z M 14 6 L 14.888672 6 L 14.888672 11 C 14.124228 10.93167 14 10.661016 14 10.166016 L 14 6 z M 7 6.0507812 L 7.8886719 6.0507812 L 7.8886719 7.125 L 8.7773438 7.125 L 8.7773438 8 L 7.8886719 8 L 7.8886719 9.25 C 7.8886719 9.47575 7.9368454 10.125 8.1777344 10.125 L 8.7773438 10.125 L 8.7773438 11 L 7.8886719 11 C 7.0611163 11 7 9.9759531 7 9.4238281 L 7 6.0507812 z M 1 7 L 1.8886719 7 L 1.8886719 11 C 1.1243163 10.934402 1 10.27597 1 9.8007812 L 1 7 z M 2.6660156 7 L 4.8886719 7 C 5.7754274 6.99072 6.2226562 7.6929102 6.2226562 8.1992188 L 6.2226562 11 L 5.3339844 11 L 5.3339844 8.1992188 C 5.3339844 7.9880235 5.0350812 7.8007812 4.7382812 7.8007812 L 3.5546875 7.8007812 L 3.5546875 11 L 2.6660156 11 L 2.6660156 7 z M 11.863281 7 L 11.865234 7 C 12.937234 7.00096 13.554688 7.8439971 13.554688 8.9511719 L 13.554688 9.4003906 L 11.015625 9.4003906 C 11.056514 9.8491804 11.3628 10.175781 11.892578 10.175781 C 12.339689 10.175781 12.562536 10.054636 12.820312 9.8066406 L 13.439453 10.384766 C 13.040342 10.766358 12.623433 10.998047 11.884766 10.998047 C 10.921211 10.998047 10 10.486107 10 8.9941406 C 10 7.7199296 10.803726 7.0008 11.863281 7 z M 11.775391 7.8007812 A 0.88888889 0.79998179 0 0 0 10.886719 8.5996094 L 12.666016 8.5996094 A 0.88888889 0.79998179 0 0 0 11.775391 7.8007812 z"/>
</svg>

<svg width="16" height="16" version="1" xmlns="http://www.w3.org/2000/svg">
  <defs>
    <style id="current-color-scheme" type="text/css">.ColorScheme-Text { color:#ebdbb2; } .ColorScheme-Highlight { color:#458588; } .ColorScheme-NeutralText { color:#fe8019; } .ColorScheme-PositiveText { color:#689d6a; } .ColorScheme-NegativeText { color:#fb4934; }</style>
  </defs>
  <path class="ColorScheme-Text" d="m1.775 1c-0.9849 0-1.777 0.7805-1.777 1.75v10.5c0 0.9694 0.7926 1.75 1.777 1.75h12.45c0.9849 0 1.777-0.7805 1.777-1.75v-10.5c0-0.9694-0.7926-1.75-1.777-1.75zm-0.7774 4.123h0.8886v0.8749h-0.8886zm13 0.8749h0.8886v5c-0.7642-0.06833-0.8886-0.3389-0.8886-0.8338zm-7 0.0508h0.8886v1.074h0.8886v0.8749h-0.8886v1.25c0 0.2257 0.04815 0.8749 0.2891 0.8749h0.5994v0.8749h-0.8886c-0.8273 0-0.8886-1.024-0.8886-1.576zm-5.998 0.949h0.8886v3.999c-0.7642-0.06561-0.8886-0.7241-0.8886-1.199zm1.666 0h2.222c0.8867-0.0093 1.334 0.6928 1.334 1.199v2.801h-0.8886v-2.801c0-0.2112-0.2989-0.3984-0.5956-0.3984h-1.183v3.199h-0.8886zm9.195 0h2e-3c1.072 9.59e-4 1.689 0.844 1.689 1.951v0.449h-2.539c0.04089 0.4486 0.3471 0.7752 0.8768 0.7752 0.4471 0 0.6697-0.1211 0.9275-0.3691l0.6191 0.5783c-0.3991 0.3817-0.816 0.6134-1.554 0.6134-0.9634 0-1.885-0.5117-1.885-2.004 0-1.274 0.8035-1.993 1.863-1.994zm-0.08787 0.8009c-0.4902 1.07e-4 -0.8878 0.3575-0.8886 0.7986h1.779c-7.11e-4 -0.4418-0.3995-0.7997-0.8904-0.7986z" fill="currentColor"/>
</svg>
